X: 56
T: Praeludia organi op. 5 – Moderato
C: Franciszek Walczyński
%%abc-version 2.0
%%abcx-abcm2ps-target-version 5.9.1 (29 Sep 2008)
%%abc-creator hum2abc beta
%%abcx-conversion-date 2021/10/04 07:38:40
%%abc-edited-by Andrzej Borzym
%%abc-edited-by Krzysztof Stępień
%%abcx-initial-encoding-date 2021-07-26
%%humdrum-veritas 760217370
%%humdrum-veritas-data 639659001
%%linebreak <none>
%%barnumbers 0
L: 1/8
M: 6/8
N: Derived from pl-kozmzk--mzk-m-159--045_walczynski-franciszek--praeludia-organi-op-5-moderato.krn
Q: "45. Moderato."
%%staves {1 2}
V: 1 clef=treble
V: 2 clef=bass
K: Eb
[V:1] GAG^F2G & E6 | 
[V:2] C6 & z6 | 
[V:1] !accent!A3G3 & D6 | 
[V:2] =B,6 & z6 | 
[V:1] G3F2=E & D6 | 
[V:2] _B,6- & z6 | 
[V:1] F6 & C6 | 
[V:2] B,A,G,A,3 & z6 | 
[V:1] D3E2D & C6- | 
[V:2] A,3=A,3 & F,,G,,A,,^F,,3 | 
[V:1] !fermata!D6 & C=B,=A,B,3 | 
[V:2] G,6 & !fermata!G,,6 | 
[V:1] z6 & z6 | 
[V:2] z6 & G,,_A,,G,,^F,,2G,, | 
[V:1] e3-e2d & ^F3=F3 | 
[V:2] CDC=B,3 & G,,6 | 
[V:1] c6 & E6 | 
[V:2] CDC=B,2C & A,,6 | 
[V:1] c_B=Ac2B- & D6 | 
[V:2] A,G,^F,A,3- & _B,,6 | 
[V:1] B_AGB2A & C6 | 
[V:2] A,6 & F,2>=E,2F,F,, | 
[V:1] G^FGe2d- & G^FG- G^F=F- | 
[V:2] E,D,E, G,=A,=B, & G,,6 | 
[V:1] dc=Bc3- & FEDE3 | 
[V:2] G,2>-G,2F,E, & C,6- | 
[V:1] c6- & D2>A2GF | 
[V:2] A,G,A, F,G,A, & C,6- | 
[V:1] !fermata!c6 & =E6 |]  
[V:2] G,6 & !fermata!C,6 |]  


